X:1
T:Title
%%score { ( 1 3 ) | ( 2 4 ) }
L:1/8
M:6/8
K:Ab
V:1 treble nm="Grand Piano"
V:3 treble 
V:2 bass 
V:4 bass 
V:1
 z3 z2[Q:1/4=100] [CE] | [CE]2 [A,C] [CE]2 [CA] | [Ec]2 [Fd] [Ec]2 [Ec] | B>cB F2 G | %4
 [CA]3 [CE]2 [CE] | [CE]2 [A,C] [CE]2 [CA] | [Ec]2 [Fd] [Ec]2 [Ec] | [EB]2 [EG] [=DG][DG][DF] | %8
 E6 |[M:1/8] [Ge] |[M:3/4] e2 cc- c/B/A | d-[Gd-] [Gd-] [Gd]2 [Gd] | [Gd]2 [GB][GB] [FA][GB] | %13
[M:5/8] c-c- c3 |[M:1/8] e |[M:3/4] e2 cc- c/B/A |[M:7/8] [FB][FB][Fc] [Fd]3 [FB] | %17
[M:3/4] AA A G2 B |[M:5/8] [CA]-[CA]- [CA]3 |] %19
V:2
 z3 z2 [A,,A,] | [A,,A,]2 [A,,E,] [A,,A,]2 [A,,A,] | [A,,A,]2 [A,,A,] [A,,A,]2 [A,,A,] | %3
 [E,G,D]>[E,G,E][E,G,D] [E,B,D]2 [E,B,D] | [A,,A,]3 [A,,A,]2 [A,,A,] | %5
 [A,,A,]2 [A,,E,] [A,,A,]2 [A,,A,] | [A,,A,]2 [A,,A,] [A,,A,]2 [A,,A,] | %7
 [B,,G,]2 [B,,B,] [B,,B,][B,,B,][B,,A,] | .G,3 z3 |[M:1/8] [E,D] | %10
[M:3/4][K:treble] [A,CA]2 [A,E][A,E]- [A,E]/[A,DE]/[K:bass][A,CE] | %11
 [E,B,][E,B,] [E,B,] [E,B,]2 [E,B,] | [E,B,]2 [E,E] [E,E]2 [E,E] | %13
[M:5/8][K:treble] [A,EA]2 [A,E] [A,E]2 |[M:1/8] [A,CA] | %15
[M:3/4] [A,CA]2[K:bass] [A,E][A,E]- [A,E]/[A,DE]/[A,CE] | %16
[M:7/8] [D,D][D,A,][C,=A,] [B,,B,]3 [D,B,] |[M:3/4] [E,CE][E,CE] [E,CE] [E,B,D]2 [E,D] | %18
[M:5/8] [A,,E,]-[A,,E,]- [A,,E,]3 |] %19
V:3
 x6 | x6 | x6 | x6 | x6 | x6 | x6 | x6 | z B,C D3 |[M:1/8] x |[M:3/4] x6 | .G2 z2 z2 | x6 | %13
[M:5/8] z2 A A2 |[M:1/8] x |[M:3/4] x6 |[M:7/8] x7 |[M:3/4] x6 |[M:5/8] x5 |] %19
V:4
 x6 | x6 | x6 | x6 | x6 | x6 | x6 | x6 | E,-[E,-G,][E,-A,] [E,G,]3 |[M:1/8] x | %10
[M:3/4][K:treble] x5[K:bass] x | x6 | x6 |[M:5/8][K:treble] x5 |[M:1/8] x |[M:3/4] x2[K:bass] x4 | %16
[M:7/8] x7 |[M:3/4] x6 |[M:5/8] x5 |] %19

